**kern	**silbe
*ICvox	*
*C:	*
*M4/4	*
*clefG2	*
r;	.
=1	=1
1r	.
=2	=2
1r	.
=3	=3
1r	.
=4	=4
1r	.
=5	=5
1r	.
=6	=6
1r	.
=7	=7
4r	.
8r	.
8e	I
8e	ne-
8e	-ver
8e	can
[8c	_
=8	=8
4c]	_
8c	say
[8A	_
8A]	_
4A	good-
[8d	-bye
=9	=9
2d_	_
8d]	_
8r	.
8r	.
[8e	No
=10	=10
8e]	_
4e	no
8c	_
8d	no
8A	_
[4A	I
=11	=11
4A]	_
8r	.
8e	I
8e	ne-
8e	-ver
8e	can
[8c	_
=12	=12
4c]	_
8c	say
[8A	_
8A]	_
4e	good-
[8d	-bye
=13	=13
2.d]	_
4r	.
=14	=14
2r	.
4e	Ev-
4f	-ery
=15	=15
4g	time
4g	I
8g	think
4g	I've
[8g	had
=16	=16
8g]	_
4g	e-
4g	-nough
8g	and
8a	start
8g	_
=17	=17
4b-	head-
4a	-ing
8g	for
8f	_
8f	the
8g	door
=18	=18
8~f#	_
4.r	.
8r	.
8.e	There's
8.g	a
=19	=19
4g	ver-
8g	-y
4g	strange
4g	vi-
[8g	-bra-
=20	=20
8g]	_
8g	-tion
4e	_
8r	.
8.g	pier-
16a	-cing
8g	_
=21	=21
4b-	me
4a	right
8g	to
8f	_
8f	the
8g	core
=22	=22
8~f#	_
8r	.
4r	.
8r	.
8g	It
8a	says
8g	_
=23	=23
4b	turn
8cc	a-
4b	-round
4g	you
8g	fool
=24	=24
4e	_
8r	.
8g	You
8g	know
8a	you
8g	_
[8b-	love
=25	=25
8b-]	_
4cc	him
4dd	more
16cc	and
8.b-	_
8dd	more
=26	=26
2cc	_
8r	.
4cc	Tell
8cc	me
=27	=27
8a-	why
4g	_
[4.f	_
4f]	_
=28	=28
2r	.
8a	is
4b	he
8b	so
=29	=29
1cc	_
=30	=30
8r	.
8g	Don't
8g	wan-
8g	-na
8a	let
4cc	you
[8ee	go
=31	=31
4ee]	_
4g	_
8r	.
8cc	Hey
8g	_
8g	I
=32	=32
8cc	ne-
8cc	-ver
8cc	can
8g	_
4cc	say
8cc	good-
8cc	-bye
=33	=33
8b-	_
[4.b-	boy
4b-]	_
4r	.
=34	=34
8r	.
8ee-	Hoo
8dd	_
8dd	Hoo
16ee-	_
16dd	_
4cc	_
16dd	ba-
16ee-	_
=35	=35
8dd	_
8cc	-by
4.a	_
8r	.
8r	.
8a	I
=36	=36
8cc	ne-
8cc	-ver
8cc	can
8a-	_
4cc	say
8cc	good-
[8cc	-bye
=37	=37
8cc]	_
4cc	no
8g	_
8r	.
4cc	oh
8g	_
=38	=38
8r	.
4cc	No
8g	_
8r	.
4cc	Hey
[8g	_
=39	=39
4g]	_
8r	.
8e	I
8e	ne-
8e	-ver
8e	can
[8c	_
=40	=40
4c]	_
8c	say
[8A	_
8A]	_
4A	good-
[8d	-bye
=41	=41
2d_	_
8d]	_
8r	.
4r	.
=42	=42
8r	.
8e	Ho
8d	_
8r	.
8d	no
8A	_
[4A	I
=43	=43
4A]	_
8r	.
8e	I
8e	ne-
8e	-ver
8e	can
[8c	_
=44	=44
4c]	_
8c	say
[8A	_
8A]	_
4e	good-
[8d	-bye
=45	=45
2.d]	_
4r	.
=46	=46
2r	.
4e	I
4f	keep
=47	=47
4g	think-
4g	-ing
8g	that
8a	our
8g	_
[8g	prob-
=48	=48
8g]	_
4.g	-lems
4g	soon
8a	are
8g	_
=49	=49
4b-	all
4a	_
8g	gon-
8f#	-na
8a	work
8g	out
=50	=50
4~f#	_
8r	.
8e	but
4e	there's
8e	that
8g	_
=51	=51
4g	same
8g	un-
8e	_
4g	-ha-
8g	-ppy
[8g	feel-
=52	=52
8g]	_
8g	-ing
8e	_
8r	.
4g	There's
4a	that
=53	=53
4b-	an-
4a	-guish
8g	there's
8f	_
8f	that
8g	doubt
=54	=54
4~f#	_
4r	.
8r	.
8g	It's
8a	that
8g	_
=55	=55
4b	same
4cc	old
4b	diz-
8cc	-zy
8b	hang-
=56	=56
8g	_
8g	-up
8r	.
8g	I
8g	can't
8a	do
8g	_
[8b-	with
=57	=57
8b-]	_
4cc	you
8dd	or
8cc	_
8b-	_
8b-	with
8dd	out
=58	=58
4.cc	_
8r	.
8r	.
4cc	Tell
8dd	me
=59	=59
8ee	why
4dd	_
4cc	_
8a	_
8a	_
[8cc	_
=60	=60
4cc]	_
4r	.
8ee	is
4ee	it
16dd	so?
16ee	_
=61	=61
2cc	_
4a	_
8r	.
8g	I
=62	=62
8ee-	don't
8dd	_
8cc	wan-
8cc	-na
4cc	let
8cc	you
8ee	go
=63	=63
4ee	_
4g	_
8r	.
8cc	Hey
8g	_
8g	I
=64	=64
8cc	ne-
8cc	-ver
8cc	can
8g	_
4cc	say
8cc	good-
8cc	-bye
=65	=65
8b-	_
[4.b-	boy
4b-]	_
4r	.
=66	=66
8r	.
4cc	Ooh
8dd	Hoo
16ee-	_
16dd	_
4cc	_
16dd	ba-
16ee-	_
=67	=67
8dd	_
8cc	-by
2a	_
8r	.
8a	I
=68	=68
8cc	ne-
8cc	-ver
8cc	can
8a-	_
4cc	say
8cc	good-
[8cc	-bye
=69	=69
8cc]	_
4cc	no
8g	_
8r	.
4cc	oh
8g	_
=70	=70
8r	.
4cc	No
8g	_
8r	.
4cc	Ooh
8g	_
=71	=71
4r	.
4cc	Hey
4g	_
8r	.
8g	I
=72	=72
8cc	ne-
8cc	-ver
8cc	can
8g	_
4cc	say
8cc	good-
8cc	-bye
=73	=73
8b-	_
[4.b-	boy
4b-]	_
4r	.
=74	=74
8r	.
8ee	Ooh
8dd	_
8dd	Hoo
16ee-	_
16dd	_
4cc	_
16dd	ba-
16ee-	_
=75	=75
8dd	_
8cc	-by
4a	_
4r	.
8r	.
8a	I
=76	=76
8cc	ne-
8cc	-ver
8cc	can
8a-	_
4cc	say
8cc	good-
[8cc	-bye
=77	=77
8cc]	_
8cc	No
8g	_
8cc	no
8g	_
8cc	no
4r	.
=78	=78
8r	.
8cc	no
8g	_
8cc	no
8g	_
4.cc	no
=79	=79
1r	.
=80	=80
1r	.
=81	=81
2r	.
8r	.
[4.gg	Wooh
=82	=82
4gg]	_
8aa	_
4ee	_
8cc	_
8g	_
[8cc	_
=83	=83
8cc]	_
8cc	Hey
4.g	_
8r	.
8r	.
8g	I
=84	=84
8cc	ne-
8cc	-ver
8cc	can
8g	_
4cc	say
8cc	good-
8cc	-bye
=85	=85
8b-	_
[4.b-	boy
4b-]	_
4r	.
=86	=86
8r	.
4g	No
4cc	no
8cc	no
8dd	_
[8cc	ba-
=87	=87
8cc]	_
8cc	-by
4a	_
8r	.
4cc	hey
8g	_
=88	=88
8cc	ne-
8cc	-ver
8cc	can
8a-	_
4dd	say
8cc	good-
[8cc	-bye
=89	=89
8cc]	_
8cc	No
8g	_
8cc	no
8g	_
8cc	no
8g	_
[8cc	please
=90	=90
8cc]	_
4cc	don't
4cc	make
4cc	me
[8cc	say
=91	=91
8cc]	_
4cc	good-
4cc	-bye
8r	.
4r	.
=92	=92
8r	.
4cc	hey
8g	_
2r	.
=93	=93
1r	.
=94	=94
1r	.
r;	.
r;	.
*-	*-
!!!ENC: Nathaniel Condit-Schultz
!!!MBID: 178b9a14-4742-4f2f-9080-d80e62a8bdb7
